X: 20398
T: John Doherty's
R: mazurka
M: 3/4
K: Amajor
A>B c>d c>E|A>c e>a e>c|d>f B2 B>a|g>f f>e e2|
E>A c>d c>E|A>c e>a e>c|d>f B>c B>A|G>B A2:|
A>c e2 e>c|(3efg a2 a>b|(3agf e2 e>a|(3gfe d2 d>g|(3fed c2 c>B|
A>c e2 e>c|(3efg a2 a>b|(3agf e2 e>a|(3gfe d2 c>B|c>d e2 B2||
e^d e>B g>e|f>a f>B ^d>f|e>^d e>B g>e|f>a f>B ^d>f|ef d>e||
|:c>d B>A e>A|c>d B>A e>A|B>c B>=G d>G|B>d B>=G d>G|
c>d B>A e>A|c>d B>A e>A|G>A B>c (3dBG|1 A2 A e>d:|2 A2 A2||

